Sources/FrostedUI/Resources/Icons.xcassets/pictureInPicture32.imageset/picture-in-picture-32.svg

<svg width="32" height="32" viewBox="0 0 32 32" fill="none" xmlns="http://www.w3.org/2000/svg" data-fui-icon="true">
  <path
    d="M22.5 3.75C26.2279 3.75 29.25 6.77208 29.25 10.5V21.5C29.25 25.2279 26.2279 28.25 22.5 28.25H9.5C5.77208 28.25 2.75 25.2279 2.75 21.5V10.5C2.75 6.77208 5.77208 3.75 9.5 3.75H22.5ZM18.5 16.75C17.5335 16.75 16.75 17.5335 16.75 18.5V26.75H22.5C25.3995 26.75 27.75 24.3995 27.75 21.5V16.75H18.5ZM9.5 5.25C6.60051 5.25 4.25 7.60051 4.25 10.5V21.5C4.25 24.3995 6.60051 26.75 9.5 26.75H15.25V18.5C15.25 16.7051 16.7051 15.25 18.5 15.25H27.75V10.5C27.75 7.60051 25.3995 5.25 22.5 5.25H9.5Z"
    fill="currentColor"
  />
</svg>

<svg xmlns="http://www.w3.org/2000/svg" width="32" height="32" fill="none" data-fui-icon="true" viewBox="0 0 32 32"><path fill="currentColor" d="M22.5 3.75a6.75 6.75 0 0 1 6.75 6.75v11a6.75 6.75 0 0 1-6.75 6.75h-13a6.75 6.75 0 0 1-6.75-6.75v-11A6.75 6.75 0 0 1 9.5 3.75zm-4 13a1.75 1.75 0 0 0-1.75 1.75v8.25h5.75c2.9 0 5.25-2.35 5.25-5.25v-4.75zm-9-11.5a5.25 5.25 0 0 0-5.25 5.25v11c0 2.9 2.35 5.25 5.25 5.25h5.75V18.5a3.25 3.25 0 0 1 3.25-3.25h9.25V10.5c0-2.9-2.35-5.25-5.25-5.25z"/></svg>
